X:64
T:Dicky Sherlock's Reel 
T:Tipperary Fancy, Ashplant, Jimmy Kelly's
B:CRE2.200 (RÃÂÃÂÃÂÃÂ­l DicÃÂÃÂÃÂÃÂ­ ScarlÃÂÃÂÃÂÃÂ³g)
F:file ID: cre.2/064dicky_s
N:aka 
Q:180
L:1/8
M:4/4
R:reel
K:D
dB|AF~F2 DFAF|DEFA B3d|eB~B2 egfe|defd BcdB|
AF~F2 DFAF|DEFA B2 Bd|egfg efdB|1 AFGE D2:|2\
AFGE D3||
|:A|dcde f2 fg|a2 bb agfg|eB~B2 gB~B2|efff ecdB|
AF~F2 ABdf|a2 bb agff|g2 fg efdB|AFGE D3:|

%%%

